X: 84
T: No_180.krn
N: Derived from No_180.krn
%%abc-version 2.0
%%abcx-abcm2ps-target-version 5.9.1 (29 Sep 2008)
%%abc-creator hum2abc beta
%%abcx-conversion-date 2019/03/15 08:29:13
%%humdrum-veritas 2563776582
%%humdrum-veritas-data 1716846286
%%linebreak <none>
%%barnumbers 0
L: 1/8
M: 2/4
%%staves {1 2}
V: 1 clef=treble
V: 2 clef=bass
K: D
[V:1] [K:clef=treble][M:2/4]F3/F/ FF | 
[V:2] [K:clef=bass][M:2/4]z2z G,, | 
[V:1] F2(3EFE | 
[V:2] (3!accent!G,, z G,, (3!accent!G,, z G,, | 
[V:1] (3FEF (3EFE | 
[V:2] z4 | 
[V:1] B,3/B,/B,2- | 
[V:2] z4 | 
[V:1] B,4 ]|:  
[V:2] z4 ]|:  
[V:1] E3/E/ ED | 
[V:2] z4 | 
[V:1] E4 | 
[V:2] z4 | 
[V:1] E3/B,/ B,A, | 
[V:2] z4 | 
[V:1] B,4 | 
[V:2] z4 | 
[V:1] z4 | 
[V:2] B,3/F,/ F,E, | 
[V:1] z4 | 
[V:2] D,4- | 
[V:1] z4 | 
[V:2] D,4 | 
[V:1] z4 | 
[V:2] F,3/F,/ F,E, | 
[V:1] z4 | 
[V:2] F,4 | 
[V:1] z4 | 
[V:2] E,2F,E, | 
[V:1] z4 | 
[V:2] B,,3/B,,/B,,2 | 
[V:1] z4 | 
[V:2] B,,4- | 
[V:1] z4 :|]  
[V:2] B,,4 :|]  



